X: 4
T: Langstrom's Pony
R: jig
M: 6/8
L: 1/8
K: Amix
g|:fed cAA|eAA cBA|fed cAA|BGB dBG|
fed cAA|cAA efg|(f<a)f gfe|dBG Bcd:|
|:cee dff|cee ecA|cee dff|dBG Bcd|
cee dff|cAA efg|(f<a)f gfe|dBG Bcd:||


Tune 61	Setting 26063

